X: 382
T: The Young Man's Dream
M:3/4
L:1/8
B:O'Neill's 382
N:"Very slow."
N:"collected by J. O'Neill"
N:H is a fermata.
Z:Transcribed by Chris Falt, cfalt@trytel.com
K:G
(G>A) \
| B2 d>e dB | A2 G>E GA | B3G (B/2A/2)(G/2A/2) | G4 :|
| (d/2e/2f) \
| g2 (gf) (f/2e/2d/2f/2) | (e2 dB) (d/2e/2f) | g2 (g>f) ed | e3 (e/2f/2) gf |
| (e2 d)B (e/2d/2)(B/2A/2) | HG2 (A/2G/2)(E/2D/2) HG>A | B3G (B/2A/2)(G/2A/2) | G4 |]


